build/img/react.svg

<svg width="48" height="48" viewBox="0 0 48 48" fill="none" xmlns="http://www.w3.org/2000/svg">
<g clip-path="url(#clip0_404_314)">
<path d="M48 23.378C48 20.198 44.018 17.184 37.912 15.316C39.322 9.094 38.696 4.142 35.936 2.556C35.2672 2.18144 34.5103 1.9929 33.744 2.01V4.19C34.194 4.19 34.556 4.28 34.86 4.446C36.19 5.21 36.768 8.114 36.318 11.852C36.21 12.772 36.034 13.74 35.818 14.728C33.7733 14.2353 31.698 13.8792 29.606 13.662C28.3597 11.9426 27 10.3083 25.536 8.77C28.726 5.806 31.72 4.182 33.756 4.182V2C31.064 2 27.542 3.918 23.98 7.244C20.42 3.94 16.896 2.04 14.206 2.04V4.22C16.232 4.22 19.236 5.836 22.426 8.78C21.056 10.22 19.686 11.852 18.384 13.662C16.2877 13.8767 14.2087 14.2363 12.162 14.738C11.9457 13.8016 11.7755 12.8551 11.652 11.902C11.192 8.162 11.76 5.258 13.082 4.486C13.374 4.31 13.756 4.23 14.206 4.23V2.05C13.386 2.05 12.64 2.226 11.996 2.596C9.246 4.182 8.63 9.122 10.048 15.326C3.962 17.206 0 20.208 0 23.378C0 26.558 3.982 29.572 10.088 31.438C8.678 37.662 9.304 42.614 12.064 44.198C12.7 44.57 13.444 44.746 14.264 44.746C16.956 44.746 20.478 42.828 24.04 39.502C27.6 42.808 31.122 44.706 33.814 44.706C34.5862 44.7223 35.3489 44.5332 36.024 44.158C38.774 42.574 39.39 37.634 37.972 31.43C44.038 29.562 48 26.548 48 23.378ZM35.26 16.852C34.88 18.1597 34.4395 19.4491 33.94 20.716C33.1223 19.1255 32.2245 17.5775 31.25 16.078C32.64 16.284 33.98 16.538 35.262 16.852H35.26ZM30.78 27.272C30.0475 28.5509 29.2607 29.7981 28.422 31.01C25.4865 31.2687 22.5341 31.2721 19.598 31.02C17.9139 28.6144 16.4411 26.0675 15.196 23.408C16.4392 20.7422 17.9057 18.1864 19.58 15.768C22.5148 15.5087 25.4665 15.5047 28.402 15.756C29.214 16.92 30.008 18.164 30.77 19.476C31.514 20.756 32.19 22.056 32.806 23.368C32.1832 24.6959 31.5073 25.9983 30.78 27.272V27.272ZM33.94 26C34.468 27.31 34.92 28.622 35.29 29.894C34.01 30.208 32.658 30.472 31.26 30.676C32.2305 29.1628 33.1249 27.6022 33.94 26V26ZM24.02 36.44C23.11 35.5 22.2 34.454 21.3 33.308C22.18 33.348 23.08 33.378 23.99 33.378C24.91 33.378 25.82 33.358 26.71 33.308C25.83 34.454 24.92 35.5 24.02 36.44ZM16.74 30.676C15.3915 30.4806 14.0527 30.223 12.728 29.904C13.09 28.642 13.54 27.34 14.048 26.04C14.45 26.82 14.872 27.604 15.332 28.388C15.792 29.17 16.26 29.934 16.74 30.676ZM23.97 10.316C24.88 11.256 25.79 12.302 26.69 13.448C25.81 13.408 24.91 13.378 24 13.378C23.08 13.378 22.17 13.398 21.28 13.448C22.16 12.302 23.07 11.256 23.97 10.316ZM16.73 16.08C15.7597 17.5899 14.8653 19.1471 14.05 20.746C13.5364 19.4709 13.0859 18.1714 12.7 16.852C13.98 16.548 15.332 16.284 16.73 16.08ZM7.876 28.328C4.412 26.852 2.172 24.914 2.172 23.378C2.172 21.842 4.412 19.894 7.876 18.428C8.716 18.066 9.636 17.742 10.586 17.44C11.144 19.356 11.878 21.352 12.786 23.398C11.9287 25.3224 11.2037 27.303 10.616 29.326C9.6869 29.0383 8.77247 28.7053 7.876 28.328V28.328ZM13.14 42.308C11.81 41.548 11.232 38.64 11.682 34.904C11.79 33.984 11.966 33.014 12.182 32.026C14.098 32.496 16.192 32.858 18.394 33.094C19.6404 34.8134 21 36.4477 22.464 37.986C19.274 40.95 16.28 42.574 14.244 42.574C13.8599 42.5782 13.4807 42.4875 13.14 42.31V42.308ZM36.348 34.854C36.808 38.592 36.24 41.498 34.918 42.27C34.626 42.446 34.244 42.524 33.794 42.524C31.768 42.524 28.764 40.91 25.574 37.964C27.0319 36.4321 28.3824 34.8016 29.616 33.084C31.7123 32.8693 33.7913 32.5097 35.838 32.008C36.064 32.996 36.238 33.944 36.348 34.854V34.854ZM40.114 28.328C39.274 28.69 38.354 29.014 37.404 29.316C36.8059 27.2826 36.0709 25.2921 35.204 23.358C36.104 21.324 36.826 19.338 37.374 17.43C38.3061 17.7186 39.2238 18.0517 40.124 18.428C43.588 19.904 45.828 21.842 45.828 23.378C45.818 24.914 43.578 26.862 40.114 28.328V28.328Z" fill="#61DBFB"/>
<path d="M23.99 27.85C25.1761 27.85 26.3135 27.3789 27.1522 26.5402C27.9909 25.7015 28.462 24.5641 28.462 23.378C28.462 22.192 27.9909 21.0545 27.1522 20.2158C26.3135 19.3772 25.1761 18.906 23.99 18.906C22.804 18.906 21.6665 19.3772 20.8278 20.2158C19.9892 21.0545 19.518 22.192 19.518 23.378C19.518 24.5641 19.9892 25.7015 20.8278 26.5402C21.6665 27.3789 22.804 27.85 23.99 27.85V27.85Z" fill="#61DBFB"/>
</g>
<defs>
<clipPath id="clip0_404_314">
<rect width="48" height="48" fill="white"/>
</clipPath>
</defs>
</svg>

<svg width="48" height="48" fill="none" xmlns="http://www.w3.org/2000/svg"><g clip-path="url(#clip0_404_314)" fill="#61DBFB"><path d="M48 23.378c0-3.18-3.982-6.194-10.088-8.062 1.41-6.222.784-11.174-1.976-12.76a4.29 4.29 0 00-2.192-.546v2.18c.45 0 .812.09 1.116.256 1.33.764 1.908 3.668 1.458 7.406a29.98 29.98 0 01-.5 2.876 47.424 47.424 0 00-6.212-1.066 47.722 47.722 0 00-4.07-4.892c3.19-2.964 6.184-4.588 8.22-4.588V2c-2.692 0-6.214 1.918-9.776 5.244-3.56-3.304-7.084-5.204-9.774-5.204v2.18c2.026 0 5.03 1.616 8.22 4.56a46.457 46.457 0 00-4.042 4.882 45.686 45.686 0 00-6.222 1.076 29.37 29.37 0 01-.51-2.836c-.46-3.74.108-6.644 1.43-7.416.292-.176.674-.256 1.124-.256V2.05c-.82 0-1.566.176-2.21.546-2.75 1.586-3.366 6.526-1.948 12.73C3.962 17.206 0 20.208 0 23.378c0 3.18 3.982 6.194 10.088 8.06-1.41 6.224-.784 11.176 1.976 12.76.636.372 1.38.548 2.2.548 2.692 0 6.214-1.918 9.776-5.244 3.56 3.306 7.082 5.204 9.774 5.204a4.36 4.36 0 002.21-.548c2.75-1.584 3.366-6.524 1.948-12.728C44.038 29.562 48 26.548 48 23.378zm-12.74-6.526a44.036 44.036 0 01-1.32 3.864 52.89 52.89 0 00-2.69-4.638c1.39.206 2.73.46 4.012.774h-.002zm-4.48 10.42a51.875 51.875 0 01-2.358 3.738 50.907 50.907 0 01-8.824.01 50.917 50.917 0 01-4.402-7.612 52.127 52.127 0 014.384-7.64 50.904 50.904 0 018.822-.012 53.29 53.29 0 012.368 3.72c.744 1.28 1.42 2.58 2.036 3.892a54.802 54.802 0 01-2.026 3.904zM33.94 26c.528 1.31.98 2.622 1.35 3.894a43.07 43.07 0 01-4.03.782A54.1 54.1 0 0033.94 26zm-9.92 10.44c-.91-.94-1.82-1.986-2.72-3.132.88.04 1.78.07 2.69.07.92 0 1.83-.02 2.72-.07a38.036 38.036 0 01-2.69 3.132zm-7.28-5.764a44.228 44.228 0 01-4.012-.772 44.165 44.165 0 011.32-3.864c.402.78.824 1.564 1.284 2.348.46.782.928 1.546 1.408 2.288zm7.23-20.36c.91.94 1.82 1.986 2.72 3.132-.88-.04-1.78-.07-2.69-.07-.92 0-1.83.02-2.72.07a38.036 38.036 0 012.69-3.132zm-7.24 5.764a54.032 54.032 0 00-2.68 4.666 41.914 41.914 0 01-1.35-3.894 46.616 46.616 0 014.03-.772zM7.876 28.328c-3.464-1.476-5.704-3.414-5.704-4.95s2.24-3.484 5.704-4.95c.84-.362 1.76-.686 2.71-.988a47.476 47.476 0 002.2 5.958 46.327 46.327 0 00-2.17 5.928c-.93-.288-1.844-.62-2.74-.998zm5.264 13.98c-1.33-.76-1.908-3.668-1.458-7.404.108-.92.284-1.89.5-2.878 1.916.47 4.01.832 6.212 1.068a47.735 47.735 0 004.07 4.892c-3.19 2.964-6.184 4.588-8.22 4.588a2.334 2.334 0 01-1.104-.264v-.002zm23.208-7.454c.46 3.738-.108 6.644-1.43 7.416-.292.176-.674.254-1.124.254-2.026 0-5.03-1.614-8.22-4.56a46.017 46.017 0 004.042-4.88 45.686 45.686 0 006.222-1.076c.226.988.4 1.936.51 2.846zm3.766-6.526c-.84.362-1.76.686-2.71.988a46.976 46.976 0 00-2.2-5.958c.9-2.034 1.622-4.02 2.17-5.928.932.289 1.85.622 2.75.998 3.464 1.476 5.704 3.414 5.704 4.95-.01 1.536-2.25 3.484-5.714 4.95z"/><path d="M23.99 27.85a4.472 4.472 0 100-8.944 4.472 4.472 0 000 8.944z"/></g><defs><clipPath id="clip0_404_314"><path fill="#fff" d="M0 0h48v48H0z"/></clipPath></defs></svg>
